X:644
T:Tom Tinker.
C:John Malchair's Third Collection of Tunes
F:https://www.vwml.org/record/Malchair/3619/p64
F:www.vwml.org/topics/historic-dance-and-tune-books/Malchair
Z:Eric Conrad Feb 2020
N:NB1 barred as in MS - time signature is 3/4 but barring is 6/4.
N:NB2 MS has "d2.e2d2" with staccato do placed somewhat oddly.  Assuming here that this this should be "d2e3d".
M:3/4   % But barred as 6/4
L:1/8
W:NB1: barred as in MS - time signature is 3/4 but barring is 6/4.
W:
W:Same as Ed. 1665 except the third note - which is F.
W:Tom Tinker - a different tune See coll.2nd. p.65
W:In Ed. of 1695 - this tune has no more than the repetition of the first strain by way of the second.
K:D
P:A
d2 | "_NB2"d2e3d [|] e2g2Bc | d2c3B [|] A4g2 | f3efg [|] a2f2d2 | e2c2A2 [|] d4 ||
P:B
d2 | e2f4 [|] e2g4 | d2c3B [|] A4g2 | f3efg [|] a2f2d2 | e2c2A2 [|] d4 |]

